<?xml version="1.0" encoding="UTF-8"?>
<map version="1.10" tiledversion="1.12.2" orientation="orthogonal" renderorder="right-down" width="5" height="6" tilewidth="16" tileheight="16" infinite="0" nextlayerid="3" nextobjectid="1">
 <tileset firstgid="1" source="../tiled/editor_tiles.tsx"/>
 <layer id="1" name="height" width="5" height="6">
  <data encoding="csv">
3,2,2,2,1,
3,2,2,1,1,
2,2,2,1,1,
3,1,1,1,1,
3,0,0,0,0,
2,0,0,0,0
</data>
 </layer>
 <layer id="2" name="objects" width="5" height="6">
  <data encoding="csv">
17,22,0,25,0,
0,0,0,22,22,
0,0,0,25,0,
0,0,25,0,0,
0,22,0,22,20,
19,0,0,0,0
</data>
 </layer>
</map>
