<?xml version="1.0" encoding="UTF-8"?>
<map version="1.10" tiledversion="1.12.2" orientation="orthogonal" renderorder="right-down" width="5" height="5" tilewidth="16" tileheight="16" infinite="0" nextlayerid="3" nextobjectid="1">
 <tileset firstgid="1" source="../tiled/editor_tiles.tsx"/>
 <layer id="1" name="height" width="5" height="5">
  <data encoding="csv">
3,3,3,3,3,
3,6,6,6,2,
3,6,7,5,2,
3,4,4,5,2,
0,1,1,2,2
</data>
 </layer>
 <layer id="2" name="objects" width="5" height="5">
  <data encoding="csv">
0,0,0,0,19,
0,0,0,0,0,
0,19,17,19,0,
19,0,0,0,0,
19,0,0,0,19
</data>
 </layer>
</map>
