<?xml version="1.0" encoding="UTF-8"?>
<map version="1.10" tiledversion="1.12.2" orientation="orthogonal" renderorder="right-down" width="5" height="5" tilewidth="16" tileheight="16" infinite="0" nextlayerid="3" nextobjectid="1">
 <tileset firstgid="1" source="../tiled/editor_tiles.tsx"/>
 <layer id="1" name="height" width="5" height="5">
  <data encoding="csv">
2,2,3,2,1,
2,2,1,1,1,
1,1,1,1,0,
2,1,0,0,0,
2,1,0,0,0
</data>
 </layer>
 <layer id="2" name="objects" width="5" height="5">
  <data encoding="csv">
0,0,0,0,22,
0,0,22,20,0,
0,0,0,0,20,
0,0,22,18,0,
19,0,22,0,17
</data>
 </layer>
</map>
